X:1
T:River of Babylon
T:River of Babylon
T:Barney E. Warren, pub.1907
T:Charles E. Orr
T:PUBLIC DOMAIN
C:Barney E. Warren, pub.1907
Z:Charles E. Orr
Z:PUBLIC DOMAIN
%%score ( 1 2 ) ( 3 4 )
L:1/8
Q:1/4=70
M:4/4
K:D
V:1 treble nm="Treble"
V:2 treble 
V:3 bass nm="Bass"
V:4 bass 
V:1
 [FA]3 [FA] [DF] [EG] [FA] [Fd] | (d4 A4) | [GB]3 [GB] [FA]2 [DF]2 | [CE] [EA]3 [EA]2 z2 | %4
w: 1.~By thy dark, de- cep- tive|flow, *|Sigh- ing, moan- ing|riv- er, *|
w: 2.~Songs of Zi- on ne’er shall|we *|Sing by thee, O|riv- er; *|
w: 3.~Gold- en days are past with|thee, *|Days are dark, O|riv- er; *|
w: 4.~Weep- ing stands the wil- low|tree *|On thy shore, O|riv- er; *|
 [FA]3 [FA] [DF] [EG] [FA] [Gc] | (d4 B4) | [FA]3 [EA] [FA]2 [Gc]2 | [Fd] [Fd]3 [Fd]2 z2 || %8
w: Cap- tives sing their songs of|woe, *|Songs of woe for-|ev- er. *|
w: Praise be heard no more in|thee, *|Heard no more for-|ev- er. *|
w: Harps un- tuned shall si- lent|be, *|Si- lent be for-|ev- er. *|
w: ’Neath its shade my walk shall|be *|Nev- er- more for-|ev- er. *|
"^Refrain" [DF]3 [DF] [DB] [DF] [Fd] [Ec] | (c4 F4) | [Dd]3 [Dd] [DA]2 [DF]2 | %11
w: From thy bon- dage I am|free, *|O de- stroy- ing|
w: |||
w: |||
w: |||
 [CE] [EA]3 [EA]2 z2 | [FA]3 [FA] [DF] [EG] [FA] [Ad] | (d4 B4) | [FA]3 [EA] [FA]2 [Gc]2 | %15
w: riv- er; *|I shall weep no more by|thee, *|Weep no more for-|
w: ||||
w: ||||
w: ||||
 [Fd] [Fd]3 [Fd]2 z2 |] %16
w: ev- er. *|
w: |
w: |
w: |
V:2
 x8 | F8 | x8 | x8 | x8 | G8 | x8 | x8 || x8 | E8 | x8 | x8 | x8 | G8 | x8 | x8 |] %16
V:3
 [D,D]3 [D,D] [D,A,] [D,A,] [D,A,] [D,A,] | (A,4 D4) | [G,,D]3 [G,,D] [D,D]2 [D,A,]2 | %3
 [A,,A,] [A,,C]3 [A,,C]2 z2 | [D,D]3 [D,D] [D,A,] [D,A,] [D,A,] [F,^B,] | (B,4 D4) | %6
 [A,D]3 [A,C] [A,,D]2 [A,,A,]2 | [D,A,] [D,A,]3 [D,A,]2 z2 || %8
 [B,,B,]3 [B,,B,] [B,,B,] [B,,B,] [B,,B,] [B,,B,] | [F,^A,]8 | [G,B,]3 [G,B,] [F,D]2 [D,A,]2 | %11
 [A,,A,] [A,,C]3 [A,,C]2 z2 | [D,D]3 [D,D] [D,A,] [D,A,] [D,A,] [F,^B,] | (B,4 D4) | %14
 [A,D]3 [A,C] [A,,D]2 [A,,A,]2 | [D,A,] [D,A,]3 [D,A,]2 z2 |] %16
V:4
 x8 | D,8 | x8 | x8 | x8 | G,8 | x8 | x8 || x8 | x8 | x8 | x8 | x8 | G,8 | x8 | x8 |] %16

